packages/dialtone-icons/src/svg/icons/weather/sunset.svg

<svg width="12" height="12" viewBox="0 0 12 12" fill="none" xmlns="http://www.w3.org/2000/svg">
<g clip-path="url(#clip0_10011_5856)">
<path fill-rule="evenodd" clip-rule="evenodd" d="M2.11145 5.11145C2.30671 4.91618 2.62329 4.91618 2.81855 5.11145L3.52355 5.81645C3.71882 6.01171 3.71882 6.32829 3.52355 6.52355C3.32829 6.71882 3.01171 6.71882 2.81645 6.52355L2.11145 5.81855C1.91618 5.62329 1.91618 5.30671 2.11145 5.11145Z" fill="black"/>
<path fill-rule="evenodd" clip-rule="evenodd" d="M0.5 9C0.5 8.72386 0.723858 8.5 1 8.5H2C2.27614 8.5 2.5 8.72386 2.5 9C2.5 9.27614 2.27614 9.5 2 9.5H1C0.723858 9.5 0.5 9.27614 0.5 9Z" fill="black"/>
<path fill-rule="evenodd" clip-rule="evenodd" d="M9.5 9C9.5 8.72386 9.72386 8.5 10 8.5H11C11.2761 8.5 11.5 8.72386 11.5 9C11.5 9.27614 11.2761 9.5 11 9.5H10C9.72386 9.5 9.5 9.27614 9.5 9Z" fill="black"/>
<path fill-rule="evenodd" clip-rule="evenodd" d="M9.88855 5.11145C10.0838 5.30671 10.0838 5.62329 9.88855 5.81855L9.18355 6.52355C8.98829 6.71882 8.67171 6.71882 8.47645 6.52355C8.28118 6.32829 8.28118 6.01171 8.47645 5.81645L9.18145 5.11145C9.37671 4.91618 9.69329 4.91618 9.88855 5.11145Z" fill="black"/>
<path fill-rule="evenodd" clip-rule="evenodd" d="M0.5 11C0.5 10.7239 0.723858 10.5 1 10.5H11C11.2761 10.5 11.5 10.7239 11.5 11C11.5 11.2761 11.2761 11.5 11 11.5H1C0.723858 11.5 0.5 11.2761 0.5 11Z" fill="black"/>
<path fill-rule="evenodd" clip-rule="evenodd" d="M4.23223 7.23223C4.70107 6.76339 5.33696 6.5 6 6.5C6.66304 6.5 7.29893 6.76339 7.76777 7.23223C8.23661 7.70107 8.5 8.33696 8.5 9C8.5 9.27614 8.27614 9.5 8 9.5C7.72386 9.5 7.5 9.27614 7.5 9C7.5 8.60218 7.34196 8.22064 7.06066 7.93934C6.77936 7.65804 6.39782 7.5 6 7.5C5.60218 7.5 5.22064 7.65804 4.93934 7.93934C4.65804 8.22064 4.5 8.60218 4.5 9C4.5 9.27614 4.27614 9.5 4 9.5C3.72386 9.5 3.5 9.27614 3.5 9C3.5 8.33696 3.76339 7.70107 4.23223 7.23223Z" fill="black"/>
<path d="M6 0.5C6.27614 0.5 6.5 0.723858 6.5 1V3.79289L7.64645 2.64645C7.84171 2.45118 8.15829 2.45118 8.35355 2.64645C8.54882 2.84171 8.54882 3.15829 8.35355 3.35355L6.35355 5.35355C6.15829 5.54882 5.84171 5.54882 5.64645 5.35355L3.64645 3.35355C3.45118 3.15829 3.45118 2.84171 3.64645 2.64645C3.84171 2.45118 4.15829 2.45118 4.35355 2.64645L5.5 3.79289V1C5.5 0.723858 5.72386 0.5 6 0.5Z" fill="black"/>
</g>
<defs>
<clipPath id="clip0_10011_5856">
<rect width="12" height="12" fill="white"/>
</clipPath>
</defs>
</svg>

<svg xmlns="http://www.w3.org/2000/svg" width="12" height="12" fill="none" viewBox="0 0 12 12">
  <g clip-path="url(#a)">
    <path fill="#000" fill-rule="evenodd" d="M6 .5a.5.5 0 0 1 .5.5v4a.5.5 0 0 1-1 0V1A.5.5 0 0 1 6 .5ZM2.111 5.111a.5.5 0 0 1 .708 0l.705.705a.5.5 0 1 1-.708.708l-.705-.705a.5.5 0 0 1 0-.708ZM.5 9a.5.5 0 0 1 .5-.5h1a.5.5 0 0 1 0 1H1A.5.5 0 0 1 .5 9Zm9 0a.5.5 0 0 1 .5-.5h1a.5.5 0 0 1 0 1h-1a.5.5 0 0 1-.5-.5Zm.389-3.889a.5.5 0 0 1 0 .708l-.705.705a.5.5 0 0 1-.708-.708l.705-.705a.5.5 0 0 1 .708 0ZM.5 11a.5.5 0 0 1 .5-.5h10a.5.5 0 0 1 0 1H1a.5.5 0 0 1-.5-.5Z" clip-rule="evenodd"/>
    <path fill="#000" fill-rule="evenodd" d="M3.646 2.646a.5.5 0 0 1 .708 0L6 4.293l1.646-1.647a.5.5 0 1 1 .708.708l-2 2a.5.5 0 0 1-.708 0l-2-2a.5.5 0 0 1 0-.708Zm.586 4.586A2.5 2.5 0 0 1 8.5 9a.5.5 0 0 1-1 0 1.5 1.5 0 0 0-3 0 .5.5 0 0 1-1 0 2.5 2.5 0 0 1 .732-1.768Z" clip-rule="evenodd"/>
  </g>
  <defs>
    <clipPath id="a">
      <path fill="#fff" d="M0 0h12v12H0z"/>
    </clipPath>
  </defs>
</svg>
